svgs/sharp-solid/gift-card.svg

<svg xmlns="http://www.w3.org/2000/svg" viewBox="0 0 576 512"><!--! Font Awesome Pro 6.6.0 by @fontawesome - https://fontawesome.com License - https://fontawesome.com/license (Commercial License) Copyright 2024 Fonticons, Inc. --><path d="M353.5 68.8C361.1 55.9 374.9 48 389.8 48l2.2 0c22.1 0 40 17.9 40 40s-17.9 40-40 40l-72 0-1.3 0 34.8-59.2zm-131 0L257.3 128l-1.3 0-72 0c-22.1 0-40-17.9-40-40s17.9-40 40-40l2.2 0c14.9 0 28.8 7.9 36.3 20.8zm89.6-24.3L288 85.5l-24.1-41C247.7 16.9 218.1 0 186.2 0L184 0C135.4 0 96 39.4 96 88c0 14.4 3.5 28 9.6 40L64 128 0 128l0 64L0 448l0 64 64 0 448 0 64 0 0-64 0-256 0-64-64 0-41.6 0c6.1-12 9.6-25.6 9.6-40c0-48.6-39.4-88-88-88l-2.2 0c-31.9 0-61.5 16.9-77.7 44.4zM512 384l0 64L64 448l0-64 448 0zm0-64L64 320l0-128 166.1 0-40.5 48.6 36.9 30.7L288 197.5l61.6 73.9 36.9-30.7L345.9 192 512 192l0 128z"/></svg>

<svg xmlns="http://www.w3.org/2000/svg" viewBox="0 0 576 512"><!--! Font Awesome Pro 6.4.0 by @fontawesome - https://fontawesome.com License - https://fontawesome.com/license (Commercial License) Copyright 2023 Fonticons, Inc. --><path d="M353.5 68.8C361.1 55.9 374.9 48 389.8 48H392c22.1 0 40 17.9 40 40s-17.9 40-40 40H320h-1.3l34.8-59.2zm-131 0L257.3 128H256 184c-22.1 0-40-17.9-40-40s17.9-40 40-40h2.2c14.9 0 28.8 7.9 36.3 20.8zm89.6-24.3L288 85.5l-24.1-41C247.7 16.9 218.1 0 186.2 0H184C135.4 0 96 39.4 96 88c0 14.4 3.5 28 9.6 40H64 0v64V448v64H64 512h64V448 192 128H512 470.4c6.1-12 9.6-25.6 9.6-40c0-48.6-39.4-88-88-88h-2.2c-31.9 0-61.5 16.9-77.7 44.4zM512 384v64H64V384H512zm0-64H64V192H230.1l-40.5 48.6 36.9 30.7L288 197.5l61.6 73.9 36.9-30.7L345.9 192H512V320z"/></svg>
